X:11
T:A Reel for Maurice
C:J.P. Cormier
R:reel
D:Velvet Arm, Golden Hand, J.P. & Joe Cormier
Z:Paul Stewart Cranford (P.S.C.), <http://www.cranfordpub.com>
Q:333
L:1/8
M:C|
K:Ddor
E|D2 dc decd|AcGA ECCE|D2 dc decd|AcGE D/D/D D:|
||E|DEFA defa|gcge gccd|DEFA defa|gcge d/d/d dE|
DEFA defa|gcge gcce|dfef decd|AcGE D/D/D D|]
